X:1
T: Mrs Cramb's Favourite
C:
R:Strathspey
Q: 128
K:A
M:4/4
L:1/16
|:A4 a3e f3c e3c|((3d2e2f2) ((3e2d2c2) ((3B2c2A2) ((3G2B2E2) |A4 a3e f3c e3c|df3 e3c A4-A3c|
ee3 a3e ff3 b3a|g3b e'3d' c'3a e3d|ce3 A3c df3 b3a|((3g2a2f2) ((3e2a2A2) B4 A3B|
c4 A3c E3e c3e|d4 B3d E3B d3f|e4 c3a f3d B3A|G3B e3d c2A2 a2gf|
e4 c3e A3c e3=g|((3f2e2d2) ((3c2B2A2) G2B2 E3G|A4 a3e ((3f2c2e2) ((3A2B2c2) |((3d2e2f2) ((3g2f2g2) aA3 A4:|
